Yaru++/apps/16/guayadeque.svg

<svg height="16" width="16" xmlns="http://www.w3.org/2000/svg">
  <path d="m7.8052826-.00017642v8.92924922l-.1305082-.01559-.1358473-.01024-.1307326-.0052-.135853-.0052-.1933057.0052-.1933114.01559-.1881909.02071-.1879666.03118-.1828409.04165-.177719.04678-.172376.05701-.17238.06236-.167249.07261-.162134.07795-.16191.08307-.151439.09331-.146318.09866-.141198.109129-.140974.108905-.130508.1193702-.125606.124714-.114917.124496-.114917.134962-.104451.140306-.09933.145202-.08886.150553-.08352.150553-.07327.161018-.06771.161018-.0628.160793-.047.171484-.04188.171264-.03653.176385-.02094.176604-.01559.18173-.0052.18173.0052.18173.01559.181506.02094.176609.03653.176604.04188.171265.047.166138.0628.166139.06771.160799.07327.161018.08352.150547.08886.150553.09933.145427.104451.140087.114917.129835.114917.129841.125606.12449.130508.119376.140974.109123.141198.108904.146318.09866.151439.08819.16191.08841.162134.07773.167249.07283.17238.06213.172376.05725.177719.04677.1828409.04142.1879666.03118.1881909.02071.1933114.01559h.1933057.1933114l.1881909-.01559.1933115-.02071.1828403-.03118.1828462-.04142.1777199-.04677.1774955-.05725.1672547-.06213.1672546-.07283.1619098-.07773.1619041-.08841.1516689-.08819.1463183-.09866.1463183-.108904.1358531-.109123.1305024-.119376.1253876-.12449.114917-.129841.115141-.129835.104446-.140087.09911-.145427.08886-.150553.08374-.150547.07305-.161018.06792-.160799.0628-.166139.047-.166138.04701-.171265.03141-.176604.02606-.176609.01047-.181506.0052-.18173v-.441386-.441187-.441181-.436286-.441181-.4411882-.441406-.441187-.441406-.441181-.436061-.441188-.441406-.441187-.441406-.441181h3.234159l-.0052-.275043-.02071-.275268-.03676-.269922-.04701-.264802-.06258-.264797-.06792-.254336-.08887-.249205-.09421-.249211-.109555-.238745-.120261-.233619-.130506-.223154-.141192-.218034-.151445-.212907-.16191-.202442-.172599-.1973156-.177496-.1868562-.188185-.18173-.198438-.1661385-.209121-.161018-.208897-.15054702-.224713-.1400875-.224713-.129835-.235179-.1193756-.240304-.1089045-.245644-.098658-.255896-.083066-.256108-.072826-.2612413-.062136-.2663555-.046774-.2717061-.031183-.2770452-.026063-.2821713-.00518zm-1.8965806 10.21160042.08352.0052.08374.01047.07817.02071.0784.02583.07327.03653.06793.04142.06258.04678.057476.05189.057683.06236.047005.06236.041654.06748.031413.0726.031413.0726.015592.08307.015822.07795.00518.08819-.00518.08307-.015822.08307-.015592.07795-.031413.0726-.031413.0726-.041654.06748-.047005.06236-.057683.06236-.057476.0519-.06258.04677-.06793.04142-.07327.0363-.0784.02606-.07817.02071-.08374.01047-.08352.0052-.08374-.0052-.08352-.01047-.07839-.02071-.0784-.02606-.07305-.0363-.06792-.04142-.0628-.04677-.05748-.0519-.05213-.06236-.05236-.06236-.03653-.06748-.03653-.0726-.03141-.0726-.01582-.07795-.01559-.08307-.0052-.08307.0052-.08819.01559-.07795.01582-.08307.03141-.0726.03653-.0726.03653-.06748.05236-.06236.05213-.06236.05748-.05189.0628-.04678.06792-.04142.07305-.03653.0784-.02583.07839-.02071.08352-.01047z" fill="#808080" fill-rule="evenodd"/>
</svg>

<svg xmlns="http://www.w3.org/2000/svg" width="16" height="16" version="1.1">
 <path style="fill:#808080;fill-rule:evenodd" id="4-9" d="M 7.8052826,-1.7642e-4 V 8.9290728 l -0.1305082,-0.01559 -0.1358473,-0.01024 -0.1307326,-0.0052 -0.135853,-0.0052 -0.1933057,0.0052 -0.1933114,0.01559 -0.1881909,0.02071 -0.1879666,0.03118 -0.1828409,0.04165 -0.177719,0.04678 -0.172376,0.05701 -0.17238,0.06236 -0.167249,0.07261 -0.162134,0.07795 -0.16191,0.08307 -0.151439,0.09331 -0.146318,0.09866 L 4.874003,9.7080518 4.733029,9.8169568 4.602521,9.936327 4.476915,10.061041 4.361998,10.185537 4.247081,10.320499 4.14263,10.460805 4.0433,10.606007 3.95444,10.75656 l -0.08352,0.150553 -0.07327,0.161018 -0.06771,0.161018 -0.0628,0.160793 -0.047,0.171484 -0.04188,0.171264 -0.03653,0.176385 -0.02094,0.176604 -0.01559,0.18173 -0.0052,0.18173 0.0052,0.18173 0.01559,0.181506 0.02094,0.176609 0.03653,0.176604 0.04188,0.171265 0.047,0.166138 0.0628,0.166139 0.06771,0.160799 0.07327,0.161018 0.08352,0.150547 0.08886,0.150553 0.09933,0.145427 0.104451,0.140087 0.114917,0.129835 0.114917,0.129841 0.125606,0.12449 0.130508,0.119376 0.140974,0.109123 0.141198,0.108904 0.146318,0.09866 0.151439,0.08819 0.16191,0.08841 0.162134,0.07773 0.167249,0.07283 0.17238,0.06213 0.172376,0.05725 0.177719,0.04677 0.1828409,0.04142 0.1879666,0.03118 0.1881909,0.02071 L 7.0790358,16 H 7.2723415 7.4656529 L 7.6538438,15.98441 7.8471553,15.9637 8.0299956,15.93252 8.2128418,15.8911 8.3905617,15.84433 8.5680572,15.78708 8.7353119,15.72495 8.9025665,15.65212 9.0644763,15.57439 9.2263804,15.48598 9.3780493,15.39779 9.5243676,15.29913 9.6706859,15.190226 9.806539,15.081103 l 0.1305024,-0.119376 0.1253876,-0.12449 0.114917,-0.129841 0.115141,-0.129835 0.104446,-0.140087 0.09911,-0.145427 0.08886,-0.150553 0.08374,-0.150547 0.07305,-0.161018 0.06792,-0.160799 0.0628,-0.166139 0.047,-0.166138 0.04701,-0.171265 0.03141,-0.176604 0.02606,-0.176609 0.01047,-0.181506 0.0052,-0.18173 V 12.007753 11.566566 11.125385 10.689099 10.247918 9.8067298 9.3653238 8.9241368 8.4827308 8.0415498 7.6054888 7.1643008 6.7228948 6.2817078 5.8403018 5.3991208 h 3.234159 l -0.0052,-0.275043 -0.02071,-0.275268 -0.03676,-0.269922 -0.04701,-0.264802 -0.06258,-0.264797 -0.06792,-0.254336 -0.08887,-0.249205 -0.09421,-0.249211 L 13.740907,3.0577918 13.620646,2.8241728 13.49014,2.6010188 13.348948,2.3829848 13.197503,2.1700778 13.035593,1.9676358 12.862994,1.7703202 12.685498,1.583464 12.497313,1.401734 12.298875,1.2355955 12.089754,1.0745775 11.880857,0.92403048 11.656144,0.78394298 11.431431,0.65410798 11.196252,0.53473238 10.955948,0.42582788 10.710304,0.32716988 10.454408,0.24410388 10.1983,0.17127788 9.9370587,0.10914188 9.6707032,0.06236788 9.3989971,0.03118488 9.1219519,0.00512188 8.8397806,-5.812e-5 Z M 5.908702,10.211424 l 0.08352,0.0052 0.08374,0.01047 0.07817,0.02071 0.0784,0.02583 0.07327,0.03653 0.06793,0.04142 0.06258,0.04678 0.057476,0.05189 0.057683,0.06236 0.047005,0.06236 0.041654,0.06748 0.031413,0.0726 0.031413,0.0726 0.015592,0.08307 0.015822,0.07795 0.00518,0.08819 -0.00518,0.08307 -0.015822,0.08307 -0.015592,0.07795 -0.031413,0.0726 -0.031413,0.0726 -0.041654,0.06748 -0.047005,0.06236 -0.057683,0.06236 -0.057476,0.0519 -0.06258,0.04677 -0.06793,0.04142 -0.07327,0.0363 -0.0784,0.02606 -0.07817,0.02071 -0.08374,0.01047 -0.08352,0.0052 -0.08374,-0.0052 -0.08352,-0.01047 -0.07839,-0.02071 -0.0784,-0.02606 -0.07305,-0.0363 -0.06792,-0.04142 -0.0628,-0.04677 -0.05748,-0.0519 -0.05213,-0.06236 -0.05236,-0.06236 -0.03653,-0.06748 -0.03653,-0.0726 -0.03141,-0.0726 -0.01582,-0.07795 -0.01559,-0.08307 -0.0052,-0.08307 0.0052,-0.08819 0.01559,-0.07795 0.01582,-0.08307 0.03141,-0.0726 0.03653,-0.0726 0.03653,-0.06748 0.05236,-0.06236 0.05213,-0.06236 0.05748,-0.05189 0.0628,-0.04678 0.06792,-0.04142 0.07305,-0.03653 0.0784,-0.02583 0.07839,-0.02071 0.08352,-0.01047 z"/>
</svg>
